//-----------------------------------------------------------------
// EJEMPLO: \inharmonic1
// Descripci贸n:
//     Colaborador kurt kobain
//     Contribuci贸n: Espectro Arm贸nico/Inarm贸nico, implementa distintos Onsets
//-----------------------------------------------------------------

// SynthDefs

(



SynthDef(\darkambience,
{
	|dur|
	var sig = HPF.ar(ar(PinkNoise,5e-3),10)*Line.kr(0,1,9);
		sig = sig * (Env.linen(0.01, dur, 0.5).kr(2));
	Out.ar (0, ar(GVerb,({|i|ar(Ringz,sig*LFNoise1.kr(0.05+0.1.rand),55*i+60,0.2)}!99).sum,70,99).tanh);
}
).add;


~opensemble.register(\darkambience, [\saturated, \root, \centre],
	{ arg suf;

		Synth(\darkambience, [\dur, suf.duration]);} );

)




