n=LFNoise1;Ndef(\x,{a=SinOsc.ar(65,Ndef(\x).ar*n.ar(0.1,3),n.ar(3,6)).tanh;9.do{a=AllpassL.ar(a,0.3,{0.2.rand+0.1}!2,5)};a.tanh}).play


{
	var	sig, sig1, sig2, lpf, popHz, lagtime, noise, popHzMul,
		pan1, pan2, panmod1, panmod2;
	popHzMul = Decay.kr(Dust.kr(0.15), 3, 10, 0.8);
	popHz = 	LFNoise1.kr(20).exprange(0.1,10) * popHzMul;
	sig = Dust2.ar(popHz);
	lpf = LFNoise1.kr(10).exprange(1000,20000);
	lagtime = LFNoise1.kr(20).range(0.008,0.0001);
	sig = LPF.ar(sig, lpf);
	sig = Lag.ar(sig, lagtime);
	sig = sig + FreeVerb.ar(sig, 0.8, 1, mul:0.11);
	panmod1 = LFNoise1.kr(5).range(0.2,0.7);
	panmod2 = LFNoise1.kr(5).range(0.2,0.7);
	pan1 = SinOsc.kr(panmod1).range(-0.2,0.2);
	pan2 = SinOsc.kr(panmod2).range(-0.2,0.2);
	sig1 = Pan2.ar(sig, pan1, 0.5);
	sig2 = Pan2.ar(sig, pan2, 0.5);
	sig = sig1 + sig2;
	sig = sig + BPF.ar(BrownNoise.ar([0.0025,0.0025]), 7200, 0.4);
	sig = sig + HPF.ar(Crackle.ar([1.999,1.999], 0.0025),2000);
	Out.ar(0, sig*6);
}.play